icons/superscript-2.svg

<svg xmlns="http://www.w3.org/2000/svg" width="24" height="24" fill="none"><g clip-path="url(#a)"><g><path fill="#121212" d="M11 7V20H9V7H3V5H15V7H11ZM19.55 6.58C19.6529 6.4823 19.7279 6.359 19.7675 6.22273C19.807 6.08647 19.8096 5.94215 19.7749 5.80456C19.7403 5.66697 19.6697 5.54107 19.5703 5.43977C19.471 5.33847 19.3465 5.2654 19.2096 5.22807C19.0727 5.19074 18.9284 5.19049 18.7914 5.22733C18.6544 5.26417 18.5296 5.33679 18.4299 5.43774C18.3302 5.53869 18.2592 5.66434 18.224 5.8018C18.1889 5.93926 18.191 6.0836 18.23 6.22L17.076 6.55C16.991 6.25225 16.9764 5.93884 17.0331 5.63444C17.0898 5.33005 17.2164 5.04297 17.4029 4.79579C17.5894 4.54862 17.8307 4.3481 18.1078 4.21001C18.385 4.07192 18.6904 4.00003 19 4C19.4004 4.00006 19.7916 4.12029 20.1229 4.34515C20.4542 4.57 20.7104 4.88913 20.8583 5.26121C21.0062 5.63329 21.039 6.04121 20.9525 6.43215C20.866 6.82309 20.6641 7.17907 20.373 7.454L18.744 9H21V10H17V9L19.55 6.58Z"/></g></g><defs><clipPath id="a"><rect width="24" height="24" fill="white"/></clipPath></defs></svg>

<svg width="24" height="24" fill="none" xmlns="http://www.w3.org/2000/svg"><g clip-path="url(#a)"><path d="M11 7v13H9V7H3V5h12v2h-4Zm8.55-.42a.8.8 0 1 0-1.32-.36l-1.154.33a2 2 0 1 1 3.297.904L18.744 9H21v1h-4V9l2.55-2.42Z" /></g><defs><clipPath id="a"><path fill="#fff" d="M0 0h24v24H0z"/></clipPath></defs></svg>
